/* XPM */
static char *maximizeA[] = {
/* columns rows colors chars-per-pixel */
"18 38 6 1 ",
"  c #000000",
". c #403e3b",
"X c #8b8984",
"o c #a6caf0",
"O c #d4d0c8",
"+ c #ffffff",
/* pixels */
"oooooooooooooooooo",
"oooooooooooooooooo",
"+++++++++++++++.oo",
"+OOOOOOOOOOOOOX.oo",
"+OO         OOX.oo",
"+OO         OOX.oo",
"+OO OOOOOOO OOX.oo",
"+OO OOOOOOO OOX.oo",
"+OO OOOOOOO OOX.oo",
"+OO OOOOOOO OOX.oo",
"+OO OOOOOOO OOX.oo",
"+OO OOOOOOO OOX.oo",
"+OO         OOX.oo",
"+OOOOOOOOOOOOOX.oo",
"+XXXXXXXXXXXXXX.oo",
"................oo",
"oooooooooooooooooo",
"oooooooooooooooooo",
"OOOOOOOOOOOOOOOOOO",
"oooooooooooooooooo",
"oooooooooooooooooo",
"...............+oo",
".XXXXXXXXXXXXXO+oo",
".XOOOOOOOOOOOOO+oo",
".XOO         OO+oo",
".XOO         OO+oo",
".XOO OOOOOOO OO+oo",
".XOO OOOOOOO OO+oo",
".XOO OOOOOOO OO+oo",
".XOO OOOOOOO OO+oo",
".XOO OOOOOOO OO+oo",
".XOO OOOOOOO OO+oo",
".XOO         OO+oo",
".OOOOOOOOOOOOOO+oo",
"++++++++++++++++oo",
"oooooooooooooooooo",
"oooooooooooooooooo",
"OOOOOOOOOOOOOOOOOO"
};
