/* XPM */
static char *minimizeA[] = {
/* columns rows colors chars-per-pixel */
"18 38 6 1 ",
"  c #000000",
". c #403e3b",
"X c #8b8984",
"o c #a6caf0",
"O c #d4d0c8",
"+ c #ffffff",
/* pixels */
"oooooooooooooooooo",
"oooooooooooooooooo",
"oo+++++++++++++++.",
"oo+OOOOOOOOOOOOOX.",
"oo+OOOOOOOOOOOOOX.",
"oo+OOOOOOOOOOOOOX.",
"oo+OOOOOOOOOOOOOX.",
"oo+OOOOOOOOOOOOOX.",
"oo+OOOOOOOOOOOOOX.",
"oo+OOOOOOOOOOOOOX.",
"oo+OOOOOOOOOOOOOX.",
"oo+OOO      OOOOX.",
"oo+OOO      OOOOX.",
"oo+OOOOOOOOOOOOOX.",
"oo+XXXXXXXXXXXXXX.",
"oo................",
"oooooooooooooooooo",
"oooooooooooooooooo",
"OOOOOOOOOOOOOOOOOO",
"oooooooooooooooooo",
"oooooooooooooooooo",
"oo...............+",
"oo.XXXXXXXXXXXXXO+",
"oo.XOOOOOOOOOOOOO+",
"oo.XOOOOOOOOOOOOO+",
"oo.XOOOOOOOOOOOOO+",
"oo.XOOOOOOOOOOOOO+",
"oo.XOOOOOOOOOOOOO+",
"oo.XOOOOOOOOOOOOO+",
"oo.XOOOOOOOOOOOOO+",
"oo.XOOOOOOOOOOOOO+",
"oo.XOOO      OOOO+",
"oo.XOOO      OOOO+",
"oo.OOOOOOOOOOOOOO+",
"oo++++++++++++++++",
"oooooooooooooooooo",
"oooooooooooooooooo",
"OOOOOOOOOOOOOOOOOO"
};
