/* XPM */
static char *restoreI[] = {
/* columns rows colors chars-per-pixel */
"18 38 6 1 ",
"  c #000000",
". c #403e3b",
"X c #8b8984",
"o c #c0c0c0",
"O c #d4d0c8",
"+ c #ffffff",
/* pixels */
"oooooooooooooooooo",
"oooooooooooooooooo",
"+++++++++++++++.oo",
"+OOOOOOOOOOOOOX.oo",
"+OOOO      OOOX.oo",
"+OOOO      OOOX.oo",
"+OOOO OOOO OOOX.oo",
"+OO      O OOOX.oo",
"+OO      O OOOX.oo",
"+OO OOOO   OOOX.oo",
"+OO OOOO OOOOOX.oo",
"+OO OOOO OOOOOX.oo",
"+OO      OOOOOX.oo",
"+OOOOOOOOOOOOOX.oo",
"+XXXXXXXXXXXXXX.oo",
"................oo",
"oooooooooooooooooo",
"oooooooooooooooooo",
"OOOOOOOOOOOOOOOOOO",
"oooooooooooooooooo",
"oooooooooooooooooo",
"...............+oo",
".XXXXXXXXXXXXXO+oo",
".XOOOOOOOOOOOOO+oo",
".XOOOO      OOO+oo",
".XOOOO      OOO+oo",
".XOOOO OOOO OOO+oo",
".XOO      O OOO+oo",
".XOO      O OOO+oo",
".XOO OOOO   OOO+oo",
".XOO OOOO OOOOO+oo",
".XOO OOOO OOOOO+oo",
".XOO      OOOOO+oo",
".OOOOOOOOOOOOOO+oo",
"++++++++++++++++oo",
"oooooooooooooooooo",
"oooooooooooooooooo",
"OOOOOOOOOOOOOOOOOO"
};
